X: 1
T: the Glendale Festival
C: Dan R. MacDonald
R: reel
Z: 2005 John Chambers <jc:trillian.mit.edu>
S: handwritten MS
M: C|
L: 1/8
K: Em
E \
| "Em"B,E~E2 GEB,E | "D"DB,A,B,  DEFD | "Em"B,E~E2 GEB,d |  "D"BGAF  "Em"E2E2 |
| "Em"B,E~E2 GEB,E | "D"DB,A,B,  DEFD | "Em"BGAF   GEFD  | "Bm"B,BAF "Em"E3  :|
|: c \
| "Em"Be~e2  bgeg  | "D"afdf "Bm"Bfdb | "Em"Be~e2  bgeg  |  "D"afdb  "Em"geec |
| "Em"Be~e2  bgeg  | "D"afdf "Bm"Bfdb | "Em"gefd   eBGB  | "Bm"B,BAF "Em"GEE :|
